X:416
T:ZÃ¤uerli (G) chords
T:Hanny Christen. Bd.3 Appenzell. S.104 (ZL 03208) orig. A-Dur
M:2/4
L:1/8
K:Gmaj%%MIDI gchordon
"[G]"d/2^c/2d =c/2A/2d | "G"BG/2B/2 D2 | "D7"AF/2A/2 D2 | "G"BG/2B/2 D2 |
d/2^c/2d "D7"=c/2A/2d | "G"BG/2B/2 D2 | "D7"AF/2A/2 DB | "G"G3 z || 
"D7"AF/2A/2 D2 | "G"BG/2B/2 D2 | "D7"AF/2A/2 D/2^C/2D/2c/2 | "G"BG/2B/2 DB/2c/2 | 
d^c/2d/2 "D7"=cA/2d/2 | "G"BG/2B/2 D2 | "D7"AF/2A/2 dB | "G"G3 z X|| 

